svg/fan_alert.svg

<svg xmlns="http://www.w3.org/2000/svg" viewBox="0 0 24 24"><path d="M10 11c-.57 0-1 .45-1 1s.43 1 1 1c.54 0 1-.45 1-1s-.46-1-1-1m.5-9c4.5 0 4.59 3.57 2.23 4.75-.99.49-1.43 1.54-1.62 2.47.48.2.89.51 1.22.91 3.7-2 7.67-1.21 7.67 2.37 0 4.5-3.57 4.6-4.74 2.23-.5-.99-1.56-1.43-2.49-1.62-.2.48-.51.89-.91 1.23C13.85 18.03 13.06 22 9.5 22c-4.5 0-4.6-3.58-2.24-4.76.98-.49 1.42-1.53 1.62-2.45-.49-.2-.92-.52-1.24-.92C3.95 15.85 0 15.07 0 11.5 0 7 3.56 6.89 4.73 9.26c.5.99 1.55 1.42 2.48 1.61.19-.48.51-.9.92-1.22C6.14 5.96 6.93 2 10.5 2M22 13V7h2v6zm0 4v-2h2v2z"/></svg>

<?xml version="1.0" encoding="UTF-8"?><!DOCTYPE svg PUBLIC "-//W3C//DTD SVG 1.1//EN" "http://www.w3.org/Graphics/SVG/1.1/DTD/svg11.dtd"><svg xmlns="http://www.w3.org/2000/svg" xmlns:xlink="http://www.w3.org/1999/xlink" version="1.1" id="mdi-fan-alert" width="24" height="24" viewBox="0 0 24 24"><path d="M10 11C9.43 11 9 11.45 9 12S9.43 13 10 13C10.54 13 11 12.55 11 12S10.54 11 10 11M10.5 2C15 2 15.09 5.57 12.73 6.75C11.74 7.24 11.3 8.29 11.11 9.22C11.59 9.42 12 9.73 12.33 10.13C16.03 8.13 20 8.92 20 12.5C20 17 16.43 17.1 15.26 14.73C14.76 13.74 13.7 13.3 12.77 13.11C12.57 13.59 12.26 14 11.86 14.34C13.85 18.03 13.06 22 9.5 22C5 22 4.9 18.42 7.26 17.24C8.24 16.75 8.68 15.71 8.88 14.79C8.39 14.59 7.96 14.27 7.64 13.87C3.95 15.85 0 15.07 0 11.5C0 7 3.56 6.89 4.73 9.26C5.23 10.25 6.28 10.68 7.21 10.87C7.4 10.39 7.72 9.97 8.13 9.65C6.14 5.96 6.93 2 10.5 2M22 13V7H24V13H22M22 17V15H24V17H22Z" /></svg>
